X: 3
T: Old Joe (R-150)
M: C|
Z: Transcribed from "Frets", with slight changes, by Debby Knight
R: reel
K: C
"C"[E3c3]d "C/E"cAGc|  "F"AGAB "F#dim7"cBcd| "C/G"eg2e "A7"ggag| "D7"ega_b "G7"aged|
"C"c2cd "C7"cAGc| "F"AGAB "F#dim7"cBcd| "G"ega_b "Am"agea| "G/B"gedB "C"c4 :|
|: "Am"A,4 C4| EA2_E DCA,G,| "Am"A,4 C4| "F7"_E3E DCA,G,|
"Am"A,2A,2 C4| EA2_E DCA,C| "C"c2cA "F"GcAG| "G"ECDB, "C"C4 :|
%%text 08/28/10 

#include "RightHeader.h"
% ---------- set 73 ----------
% Jimmy in the Swamp (G) / Kansas City (A) / Old Bell Cow (A)
%%text Set 73
%%vskip -1cm
